src/loggor/mail.svg

<svg height="60" preserveAspectRatio="xMidYMid meet" viewBox="0 0 45 44.999999" width="60" xmlns="http://www.w3.org/2000/svg" zoomAndPan="magnify"><path d="m29.59375-6.71875c-.78125 0-1.445312-.203125-1.984375-.609375-.542969-.414063-.84375-1.066406-.90625-1.953125l-.109375-.09375c-.75.78125-1.578125 1.421875-2.484375 1.921875-.898437.492187-1.78125.734375-2.65625.734375-1.375 0-2.671875-.398438-3.890625-1.203125-1.210938-.800781-2.183594-1.859375-2.921875-3.171875-.730469-1.3125-1.09375-2.71875-1.09375-4.21875 0-2.0625.445313-4.015625 1.34375-5.859375.90625-1.851563 2.15625-3.351563 3.75-4.5 1.601563-1.144531 3.40625-1.71875 5.40625-1.71875 2.65625 0 4.632813 1.0625 5.9375 3.1875l.640625-2.59375h4.3125l-2.84375 12.515625c-.230469 1.011719-.34375 1.683594-.34375 2.015625 0 .71875.257812 1.078125.78125 1.078125.914062 0 1.800781-.375 2.65625-1.125.851562-.757812 1.539062-1.789062 2.0625-3.09375.519531-1.3125.78125-2.785156.78125-4.421875 0-2.488281-.558594-4.664063-1.671875-6.53125-1.105469-1.863281-2.671875-3.3125-4.703125-4.34375s-4.371094-1.546875-7.015625-1.546875c-2.75 0-5.183594.640625-7.296875 1.921875-2.105469 1.273437-3.746094 3.03125-4.921875 5.28125-1.179687 2.242187-1.765625 4.75-1.765625 7.53125s.601562 5.273437 1.8125 7.46875c1.207031 2.1875 2.921875 3.914063 5.140625 5.171875 2.226563 1.25 4.800781 1.875 7.71875 1.875 1.988281 0 3.867187-.347656 5.640625-1.046875 1.769531-.707031 3.320312-1.679687 4.65625-2.921875h4.375c-1.742188 2.554688-3.902344 4.511719-6.484375 5.875-2.585937 1.351562-5.414063 2.03125-8.484375 2.03125-3.5 0-6.726562-.808594-9.671875-2.421875-2.949219-1.625-5.28125-3.859375-7-6.703125-1.710937-2.851562-2.5625-6-2.5625-9.4375 0-3.394531.847656-6.515625 2.546875-9.359375 1.695312-2.851563 3.992188-5.097656 6.890625-6.734375 2.894531-1.632812 6.0625-2.453125 9.5-2.453125 3.039063 0 5.882813.640625 8.53125 1.921875 2.65625 1.273438 4.773437 3.070312 6.359375 5.390625 1.59375 2.324219 2.390625 4.992187 2.390625 8 0 3.074219-.730469 5.679687-2.1875 7.8125-1.460937 2.125-3.171875 3.714844-5.140625 4.765625-1.960938 1.042969-3.65625 1.5625-5.09375 1.5625zm-1.078125-11.734375c0-1.207031-.371094-2.203125-1.109375-2.984375-.730469-.789062-1.683594-1.1875-2.859375-1.1875-.992187 0-1.929687.3125-2.8125.9375-.875.617188-1.578125 1.4375-2.109375 2.46875-.523438 1.03125-.78125 2.105469-.78125 3.21875 0 1.3125.34375 2.371094 1.03125 3.171875.6875.804687 1.617188 1.203125 2.796875 1.203125 1.082031 0 2.0625-.328125 2.9375-.984375.882813-.65625 1.585937-1.515625 2.109375-2.578125.53125-1.0625.796875-2.148438.796875-3.265625zm0 0" fill="#dcdcdc" transform="translate(-1.462288 38.094517)"/></svg>

<svg xmlns="http://www.w3.org/2000/svg" xmlns:xlink="http://www.w3.org/1999/xlink" width="60" zoomAndPan="magnify" viewBox="0 0 45 44.999999" height="60" preserveAspectRatio="xMidYMid meet" version="1.0"><defs><g/></defs><g fill="#DCDCDC" fill-opacity="1"><g transform="translate(-1.462288, 38.094517)"><g><path d="M 29.59375 -6.71875 C 28.8125 -6.71875 28.148438 -6.921875 27.609375 -7.328125 C 27.066406 -7.742188 26.765625 -8.394531 26.703125 -9.28125 L 26.59375 -9.375 C 25.84375 -8.59375 25.015625 -7.953125 24.109375 -7.453125 C 23.210938 -6.960938 22.328125 -6.71875 21.453125 -6.71875 C 20.078125 -6.71875 18.78125 -7.117188 17.5625 -7.921875 C 16.351562 -8.722656 15.378906 -9.78125 14.640625 -11.09375 C 13.910156 -12.40625 13.546875 -13.8125 13.546875 -15.3125 C 13.546875 -17.375 13.992188 -19.328125 14.890625 -21.171875 C 15.796875 -23.023438 17.046875 -24.523438 18.640625 -25.671875 C 20.242188 -26.816406 22.046875 -27.390625 24.046875 -27.390625 C 26.703125 -27.390625 28.679688 -26.328125 29.984375 -24.203125 L 30.625 -26.796875 L 34.9375 -26.796875 L 32.09375 -14.28125 C 31.863281 -13.269531 31.75 -12.597656 31.75 -12.265625 C 31.75 -11.546875 32.007812 -11.1875 32.53125 -11.1875 C 33.445312 -11.1875 34.332031 -11.5625 35.1875 -12.3125 C 36.039062 -13.070312 36.726562 -14.101562 37.25 -15.40625 C 37.769531 -16.71875 38.03125 -18.191406 38.03125 -19.828125 C 38.03125 -22.316406 37.472656 -24.492188 36.359375 -26.359375 C 35.253906 -28.222656 33.6875 -29.671875 31.65625 -30.703125 C 29.625 -31.734375 27.285156 -32.25 24.640625 -32.25 C 21.890625 -32.25 19.457031 -31.609375 17.34375 -30.328125 C 15.238281 -29.054688 13.597656 -27.296875 12.421875 -25.046875 C 11.242188 -22.804688 10.65625 -20.296875 10.65625 -17.515625 C 10.65625 -14.734375 11.257812 -12.242188 12.46875 -10.046875 C 13.675781 -7.859375 15.390625 -6.132812 17.609375 -4.875 C 19.835938 -3.625 22.410156 -3 25.328125 -3 C 27.316406 -3 29.195312 -3.347656 30.96875 -4.046875 C 32.738281 -4.753906 34.289062 -5.726562 35.625 -6.96875 L 40 -6.96875 C 38.257812 -4.414062 36.097656 -2.457031 33.515625 -1.09375 C 30.929688 0.257812 28.101562 0.9375 25.03125 0.9375 C 21.53125 0.9375 18.304688 0.128906 15.359375 -1.484375 C 12.410156 -3.109375 10.078125 -5.34375 8.359375 -8.1875 C 6.648438 -11.039062 5.796875 -14.1875 5.796875 -17.625 C 5.796875 -21.019531 6.644531 -24.140625 8.34375 -26.984375 C 10.039062 -29.835938 12.335938 -32.082031 15.234375 -33.71875 C 18.128906 -35.351562 21.296875 -36.171875 24.734375 -36.171875 C 27.773438 -36.171875 30.617188 -35.53125 33.265625 -34.25 C 35.921875 -32.976562 38.039062 -31.179688 39.625 -28.859375 C 41.21875 -26.535156 42.015625 -23.867188 42.015625 -20.859375 C 42.015625 -17.785156 41.285156 -15.179688 39.828125 -13.046875 C 38.367188 -10.921875 36.65625 -9.332031 34.6875 -8.28125 C 32.726562 -7.238281 31.03125 -6.71875 29.59375 -6.71875 Z M 28.515625 -18.453125 C 28.515625 -19.660156 28.144531 -20.65625 27.40625 -21.4375 C 26.675781 -22.226562 25.722656 -22.625 24.546875 -22.625 C 23.554688 -22.625 22.617188 -22.3125 21.734375 -21.6875 C 20.859375 -21.070312 20.15625 -20.25 19.625 -19.21875 C 19.101562 -18.1875 18.84375 -17.113281 18.84375 -16 C 18.84375 -14.6875 19.1875 -13.628906 19.875 -12.828125 C 20.5625 -12.023438 21.492188 -11.625 22.671875 -11.625 C 23.753906 -11.625 24.734375 -11.953125 25.609375 -12.609375 C 26.492188 -13.265625 27.195312 -14.125 27.71875 -15.1875 C 28.25 -16.25 28.515625 -17.335938 28.515625 -18.453125 Z M 28.515625 -18.453125 "/></g></g></g></svg>
